static/library/qdrant-wordmark-light.svg

<svg width="241" height="64" viewBox="0 0 241 64" fill="none" xmlns="http://www.w3.org/2000/svg">
<g clip-path="url(#clip0_10349_66860)">
<path d="M28.2136 0L0.5 16V48L28.2136 64L38.6056 58V46L28.2136 52L10.8936 42V22L28.2136 12L45.5336 22V62L55.9272 56V16L28.2136 0Z" fill="#DC244C"/>
<path d="M17.8216 26V38L28.2136 44L38.6056 38V26L28.2136 20L17.8216 26Z" fill="#DC244C"/>
<path d="M38.6056 46V58L28.2136 64V52L38.6056 46Z" fill="#9E0D38"/>
<path d="M55.9272 16V56L45.5336 62V22L55.9272 16Z" fill="#9E0D38"/>
<path d="M55.9272 16L45.5336 22L28.2136 12L10.8936 22L0.5 16L28.2136 0L55.9272 16Z" fill="#FF516B"/>
<path d="M28.2136 52V64L0.5 48V16L10.8936 22V42L28.2136 52Z" fill="#DC244C"/>
<path d="M38.6056 26L28.2136 32L17.8216 26L28.2136 20L38.6056 26Z" fill="#FF516B"/>
<path d="M28.2136 32V44L17.8216 38V26L28.2136 32Z" fill="#DC244C"/>
<path d="M38.6056 26V38L28.2136 44V32L38.6056 26Z" fill="#9E0D38"/>
<path d="M106.565 40.1728C107.394 37.872 107.81 35.2 107.81 32.1568V32C107.81 27.8144 107.058 24.2944 105.554 21.44C104.05 18.5856 101.928 16.432 99.1988 14.9792C96.466 13.5264 93.2468 12.8 89.5476 12.8C86.7796 12.8 84.2612 13.2064 81.9988 14.0192C79.7332 14.832 77.8132 16.0512 76.2388 17.6768C74.6644 19.3024 73.4452 21.3088 72.5812 23.696C71.7172 26.0832 71.2852 28.8512 71.2852 32V32.1568C71.2852 36.2048 72.0212 39.6032 73.49 42.352C74.9588 45.104 77.0612 47.1776 79.794 48.5792C82.5268 49.9808 85.778 50.6816 89.5508 50.6816H112.04V44.7648H104.053C105.106 43.44 105.944 41.9104 106.575 40.1728H106.565ZM85.0836 44.064C83.7684 43.5968 82.6452 42.9152 81.7108 42.0128C80.7764 41.1136 80.0756 40.032 79.6084 38.768C79.1412 37.504 78.9076 36.0608 78.9076 34.4352V29.3504C78.9076 27.344 79.298 25.5712 80.0756 24.032C80.8532 22.4928 82.0372 21.2832 83.6308 20.4C85.2212 19.5168 87.2116 19.0752 89.5988 19.0752C91.362 19.0752 92.9204 19.328 94.2676 19.8272C95.618 20.3296 96.7316 21.04 97.6148 21.9552C98.498 22.8736 99.154 23.9616 99.586 25.2256C100.018 26.4896 100.236 27.8624 100.236 29.3504V34.4352C100.236 36.5824 99.8195 38.4224 98.9908 39.9616C98.1588 41.5008 96.9492 42.6848 95.3588 43.5168C93.7684 44.3456 91.8484 44.7616 89.5988 44.7616C87.9028 44.7616 86.3988 44.528 85.0836 44.0608V44.064Z" fill="#0B0F19"/>
<path d="M132.556 27.3824C131.896 25.8944 130.818 24.7104 129.311 23.8272C127.807 22.944 126.12 22.5024 124.252 22.5024C122.626 22.5024 121.154 22.7808 119.842 23.3312C118.527 23.8848 117.404 24.7232 116.469 25.8496C115.535 26.9728 114.824 28.4096 114.341 30.1568C113.855 31.904 113.615 33.9552 113.615 36.3072V37.2928C113.615 40.1312 113.996 42.5952 114.757 44.688C115.519 46.7808 116.687 48.3904 118.261 49.5136C119.836 50.6368 121.848 51.2 124.306 51.2C126.175 51.2 127.852 50.768 129.34 49.904C130.828 49.04 131.9 47.8464 132.556 46.3232H132.917L133.282 50.6816H139.717V12.8512H132.92V27.3824H132.556ZM132.917 39.1104C132.917 41.152 132.373 42.752 131.282 43.9104C130.191 45.0688 128.732 45.648 126.898 45.648C125.653 45.648 124.572 45.408 123.653 44.9216C122.735 44.4384 122.034 43.7184 121.551 42.768C121.064 41.8176 120.824 40.6656 120.824 39.3184V34.3872C120.824 33.0368 121.068 31.8976 121.551 30.9632C122.034 30.0288 122.735 29.312 123.653 28.8096C124.568 28.3072 125.65 28.0576 126.898 28.0576C128.146 28.0576 129.208 28.3168 130.088 28.8352C130.972 29.3536 131.663 30.0992 132.165 31.0656C132.668 32.0352 132.917 33.1936 132.917 34.5408V39.1104Z" fill="#0B0F19"/>
<path d="M186.412 32.2592C186.412 30.0448 185.954 28.2304 185.036 26.8096C184.117 25.392 182.812 24.32 181.119 23.5936C179.423 22.8672 177.349 22.5024 174.892 22.5024C172.296 22.5024 170.082 22.8736 168.248 23.6192C166.415 24.3648 165.007 25.4368 164.018 26.8352C163.032 28.2368 162.54 29.9232 162.54 31.8944H168.664C168.664 30.6496 169.157 29.68 170.143 28.9888C171.128 28.2976 172.52 27.952 174.319 27.952C175.461 27.952 176.428 28.1088 177.224 28.4192C178.021 28.7296 178.626 29.216 179.042 29.872C179.458 30.528 179.666 31.4112 179.666 32.5184V33.7632L171.621 34.8C170.204 34.9728 168.914 35.2768 167.756 35.7088C166.597 36.1408 165.602 36.72 164.773 37.4464C163.944 38.1728 163.311 39.0368 162.879 40.0416C162.447 41.0464 162.229 42.2048 162.229 43.5168V43.6736C162.229 45.9584 163.032 47.7824 164.642 49.1488C166.252 50.5152 168.335 51.2 170.895 51.2C172.453 51.2 173.845 51.0016 175.071 50.6016C176.3 50.2048 177.362 49.632 178.261 48.8896C179.16 48.1472 179.836 47.2544 180.284 46.2176H180.802L181.269 50.6816H190.194V45.856H186.405V32.2592H186.412ZM179.666 41.7568C179.564 42.656 179.25 43.4432 178.732 44.1184C178.213 44.7936 177.519 45.3216 176.655 45.7024C175.791 46.0832 174.805 46.272 173.698 46.272C172.21 46.272 171.068 45.9616 170.274 45.3376C169.477 44.7136 169.08 43.8848 169.08 42.848V42.0704C169.08 40.928 169.503 40.0896 170.351 39.552C171.199 39.0176 172.348 38.6624 173.8 38.4896L179.663 37.6608V41.76L179.666 41.7568Z" fill="#0B0F19"/>
<path d="M214.117 23.7248C212.68 22.912 210.978 22.5056 209.007 22.5056C207.036 22.5056 205.192 22.9984 203.688 23.984C202.184 24.9696 201.138 26.2752 200.549 27.9008H200.082L199.615 23.024H193.285V50.6816H200.082V35.2704C200.082 33.8176 200.322 32.5472 200.808 31.456C201.292 30.3648 201.992 29.5264 202.911 28.9408C203.826 28.352 204.943 28.0576 206.258 28.0576C207.4 28.0576 208.376 28.256 209.189 28.6528C210.002 29.0496 210.642 29.7152 211.109 30.6496C211.576 31.584 211.81 32.88 211.81 34.5408V50.6784H218.556V33.6576C218.556 31.1328 218.175 29.0464 217.413 27.4048C216.652 25.7632 215.554 24.5344 214.117 23.7216V23.7248Z" fill="#0B0F19"/>
<path d="M240.495 28.5216V23.0208H233.384V14.2496H226.588V23.0208H220.412V28.5216H226.588V45.1776C226.588 46.8032 227.02 48.128 227.884 49.1488C228.748 50.1696 230.165 50.6784 232.14 50.6784H240.184V45.3344H233.388V28.5216H240.498H240.495Z" fill="#0B0F19"/>
<path d="M158.194 22.7104C156.396 22.7104 154.796 23.1008 153.394 23.8784C151.992 24.656 150.981 25.9264 150.357 27.6928H150.149L149.839 23.0752H143.976V50.6816H150.463V35.5808C150.533 34.128 150.853 32.8992 151.423 31.8976C151.992 30.896 152.831 30.1248 153.938 29.5872C155.045 29.0496 156.428 28.784 158.088 28.784C158.434 28.784 158.754 28.7936 159.048 28.8096C159.343 28.8288 159.592 28.8352 159.8 28.8352V22.7104H158.191H158.194Z" fill="#0B0F19"/>
</g>
<defs>
<clipPath id="clip0_10349_66860">
<rect width="240" height="64" fill="white" transform="translate(0.5)"/>
</clipPath>
</defs>
</svg>

<svg xmlns="http://www.w3.org/2000/svg" width="241" height="64" fill="none" viewBox="0 0 241 64">
  <g clip-path="url(#a)">
    <path fill="#dc244c" d="M28.214 0 .5 16v32l27.714 16 10.392-6V46l-10.392 6-17.32-10V22l17.32-10 17.32 10v40l10.393-6V16z"/>
    <path fill="#dc244c" d="M17.822 26v12l10.392 6 10.392-6V26l-10.392-6z"/>
    <path fill="#9e0d38" d="M38.606 46v12l-10.392 6V52zm17.321-30v40l-10.393 6V22z"/>
    <path fill="#ff516b" d="m55.927 16-10.393 6-17.32-10-17.32 10L.5 16 28.214 0z"/>
    <path fill="#dc244c" d="M28.214 52v12L.5 48V16l10.394 6v20z"/>
    <path fill="#ff516b" d="m38.606 26-10.392 6-10.392-6 10.392-6z"/>
    <path fill="#dc244c" d="M28.214 32v12l-10.392-6V26z"/>
    <path fill="#9e0d38" d="M38.606 26v12l-10.392 6V32z"/>
    <path fill="#0b0f19" d="M106.565 40.173q1.244-3.452 1.245-8.016V32q0-6.279-2.256-10.56c-1.504-2.854-3.626-5.008-6.355-6.46q-4.101-2.18-9.651-2.18-4.154 0-7.55 1.22-3.397 1.218-5.76 3.657-2.361 2.438-3.657 6.019T71.285 32v.157q0 6.072 2.205 10.195 2.204 4.127 6.304 6.227 4.099 2.103 9.757 2.103h22.489v-5.917h-7.987q1.578-1.987 2.522-4.592zm-21.481 3.891q-1.973-.7-3.373-2.051a8.55 8.55 0 0 1-2.103-3.245q-.7-1.895-.7-4.333V29.35q0-3.01 1.168-5.318 1.165-2.309 3.555-3.632 2.386-1.325 5.968-1.325 2.646.002 4.669.752 2.024.755 3.347 2.128a8.7 8.7 0 0 1 1.971 3.27c.432 1.265.65 2.637.65 4.125v5.085q0 3.219-1.245 5.527-1.247 2.308-3.632 3.555-2.385 1.244-5.76 1.245-2.543 0-4.515-.701zm47.472-16.682c-.66-1.488-1.738-2.672-3.245-3.555q-2.257-1.325-5.059-1.325-2.44.002-4.41.83a8.7 8.7 0 0 0-3.373 2.518q-1.402 1.686-2.128 4.307-.728 2.621-.726 6.15v.986q0 4.256 1.142 7.395 1.143 3.14 3.504 4.826c1.575 1.123 3.587 1.686 6.045 1.686q2.803 0 5.034-1.296 2.232-1.297 3.216-3.58h.361l.365 4.358h6.435v-37.83h-6.797v14.53zm.361 11.728q0 3.063-1.635 4.8-1.635 1.738-4.384 1.738-1.867.002-3.245-.726-1.377-.728-2.102-2.154-.729-1.426-.727-3.45v-4.93c0-1.351.244-2.49.727-3.425a5.04 5.04 0 0 1 2.102-2.153q1.373-.753 3.245-.752 1.871 0 3.19.777 1.325.78 2.077 2.23.753 1.455.752 3.476zm53.495-6.85q0-3.321-1.376-5.45-1.378-2.127-3.917-3.216-2.543-1.091-6.227-1.092-3.894 0-6.644 1.117-2.748 1.119-4.23 3.216-1.478 2.102-1.478 5.06h6.124q0-1.869 1.479-2.906 1.478-1.037 4.176-1.037 1.712.001 2.905.467 1.195.467 1.818 1.453.624.985.624 2.646v1.245l-8.045 1.037q-2.127.26-3.865.909-1.739.648-2.983 1.737a7.2 7.2 0 0 0-1.894 2.596q-.649 1.506-.65 3.475v.157q-.001 3.425 2.413 5.475t6.253 2.051q2.337.001 4.176-.598 1.843-.597 3.19-1.712a7.1 7.1 0 0 0 2.023-2.672h.518l.467 4.464h8.925v-4.826h-3.789V32.259zm-6.746 9.497a4.67 4.67 0 0 1-.934 2.361q-.78 1.014-2.077 1.584t-2.957.57q-2.232.001-3.424-.934-1.195-.935-1.194-2.49v-.778q0-1.712 1.271-2.518 1.272-.803 3.449-1.062l5.863-.83v4.1zm34.451-18.032q-2.154-1.22-5.11-1.22c-1.971 0-3.815.493-5.319 1.479q-2.256 1.479-3.139 3.917h-.467l-.467-4.877h-6.33v27.658h6.797V35.27q-.001-2.178.726-3.814.725-1.637 2.103-2.515 1.373-.883 3.347-.883 1.712 0 2.931.595t1.92 1.997q.7 1.4.701 3.89v16.138h6.746v-17.02q0-3.79-1.143-6.253-1.141-2.463-3.296-3.683zm26.378 4.797V23.02h-7.111v-8.77h-6.796v8.77h-6.176v5.502h6.176v16.656q0 2.439 1.296 3.97 1.295 1.532 4.256 1.53h8.044v-5.344h-6.796V28.522h7.11zm-82.301-5.812q-2.697 0-4.8 1.168-2.102 1.166-3.037 3.815h-.208l-.31-4.618h-5.863v27.607h6.487V35.58q.105-2.18.96-3.683.854-1.504 2.515-2.31 1.66-.805 4.15-.804.519.001.96.026.441.027.752.025V22.71h-1.609z"/>
  </g>
  <defs>
    <clipPath id="a">
      <path fill="#fff" d="M.5 0h240v64H.5z"/>
    </clipPath>
  </defs>
</svg>
